X:7510
T:Thirty Years Ago
O:england
S:Mike Bush, via EF
M:4/4
L:1/4
K:G
P:A
B/4c/4|"G"d/2B/2e/2B/2 d/2B/2A/2B/2|"G"G/2F/2G/2A/2 "D7"G/2D/2G/2A/2|\
"G"B/2G/2B/2d/2 "Am"c/2B/2A/2G/2|"D7"F/2G/2A/2F/2 DB/2c/2|
"G"d/2B/2e/2B/2 d/2B/2A/2B/2|"G"G/2F/2G/2A/2 G/2A/2B/2c/2|\
"Em"d/2e/2f/2e/2 "D7"d/2c/2A/2F/2|"G"GA/2G/2 F/2G:|
(3D/2E/2F/2|"G"G/2F/2G/2A/2 BA/2G/2|"D7"F/2G/2A/2F/2 D/2E/2F/2D/2|\
"G"G/2F/2G/2A/2 "Em"BA/2G/2|"Am"A/2d/2d/2e/2 "D7"d/2c/2B/2A/2|
"G"G/2F/2G/2A/2 BA/2G/2|"D"F/2G/2A/2B/2 cB/2c/2|\
"Em"d/2e/2f/2e/2 "D7"d/2c/2A/2F/2|"G"GA/2G/2 F/2G:|
